svg/700/outlined/casino-fill.svg

<svg xmlns="http://www.w3.org/2000/svg" width="48" height="48" viewBox="0 -960 960 960"><path d="M315.118-265Q336-265 350.5-279.618q14.5-14.617 14.5-35.5Q365-336 350.382-350.5q-14.617-14.5-35.5-14.5Q294-365 279.5-350.382q-14.5 14.617-14.5 35.5Q265-294 279.618-279.5q14.617 14.5 35.5 14.5Zm0-330Q336-595 350.5-609.618q14.5-14.617 14.5-35.5Q365-666 350.382-680.5q-14.617-14.5-35.5-14.5Q294-695 279.5-680.382q-14.5 14.617-14.5 35.5Q265-624 279.618-609.5q14.617 14.5 35.5 14.5Zm165 165Q501-430 515.5-444.618q14.5-14.617 14.5-35.5Q530-501 515.382-515.5q-14.617-14.5-35.5-14.5Q459-530 444.5-515.382q-14.5 14.617-14.5 35.5Q430-459 444.618-444.5q14.617 14.5 35.5 14.5Zm165 165Q666-265 680.5-279.618q14.5-14.617 14.5-35.5Q695-336 680.382-350.5q-14.617-14.5-35.5-14.5Q624-365 609.5-350.382q-14.5 14.617-14.5 35.5Q595-294 609.618-279.5q14.617 14.5 35.5 14.5Zm0-330Q666-595 680.5-609.618q14.5-14.617 14.5-35.5Q695-666 680.382-680.5q-14.617-14.5-35.5-14.5Q624-695 609.5-680.382q-14.5 14.617-14.5 35.5Q595-624 609.618-609.5q14.617 14.5 35.5 14.5ZM189-95q-39.05 0-66.525-27.475Q95-149.95 95-189v-582q0-39.463 27.475-67.231Q149.95-866 189-866h582q39.463 0 67.231 27.769Q866-810.463 866-771v582q0 39.05-27.769 66.525Q810.463-95 771-95H189Z"/></svg>

<svg xmlns="http://www.w3.org/2000/svg" width="48" height="48" viewBox="0 -960 960 960"><path d="M315.12-265q20.88 0 35.38-14.62 14.5-14.62 14.5-35.5 0-20.88-14.62-35.38-14.62-14.5-35.5-14.5-20.88 0-35.38 14.62-14.5 14.62-14.5 35.5 0 20.88 14.62 35.38 14.62 14.5 35.5 14.5Zm0-330q20.88 0 35.38-14.62 14.5-14.62 14.5-35.5 0-20.88-14.62-35.38-14.62-14.5-35.5-14.5-20.88 0-35.38 14.62-14.5 14.62-14.5 35.5 0 20.88 14.62 35.38 14.62 14.5 35.5 14.5Zm165 165q20.88 0 35.38-14.62 14.5-14.62 14.5-35.5 0-20.88-14.62-35.38-14.62-14.5-35.5-14.5-20.88 0-35.38 14.62-14.5 14.62-14.5 35.5 0 20.88 14.62 35.38 14.62 14.5 35.5 14.5Zm165 165q20.88 0 35.38-14.62 14.5-14.62 14.5-35.5 0-20.88-14.62-35.38-14.62-14.5-35.5-14.5-20.88 0-35.38 14.62-14.5 14.62-14.5 35.5 0 20.88 14.62 35.38 14.62 14.5 35.5 14.5Zm0-330q20.88 0 35.38-14.62 14.5-14.62 14.5-35.5 0-20.88-14.62-35.38-14.62-14.5-35.5-14.5-20.88 0-35.38 14.62-14.5 14.62-14.5 35.5 0 20.88 14.62 35.38 14.62 14.5 35.5 14.5ZM189-95q-39.05 0-66.53-27.47Q95-149.95 95-189v-582q0-39.46 27.47-67.23Q149.95-866 189-866h582q39.46 0 67.23 27.77Q866-810.46 866-771v582q0 39.05-27.77 66.53Q810.46-95 771-95H189Z"/></svg>
